packages/foundations/assets/icons/functional/images/business & payment/shopping_basket_20_filled.svg

<svg width="20" height="20" viewBox="0 0 20 20" fill="none" xmlns="http://www.w3.org/2000/svg">
<g clip-path="url(#clip0_2202_1475)">
<path fill-rule="evenodd" clip-rule="evenodd" d="M9.96762 3C12.3376 3 13.9886 4.723 13.9886 6.978H16.9816C17.6056 6.978 18.1036 7.573 17.9796 8.199L16.4206 16.186C16.3266 16.656 15.8906 17 15.4226 17H4.57462C4.34436 16.9964 4.12239 16.9135 3.94621 16.7652C3.77002 16.6168 3.65043 16.4123 3.60762 16.186L2.01862 8.199C1.99128 8.05141 1.99644 7.89964 2.03372 7.75424C2.07101 7.60885 2.13953 7.47332 2.23452 7.35711C2.32952 7.24089 2.44869 7.14677 2.58376 7.0813C2.71883 7.01582 2.86654 6.98058 3.01662 6.978H6.00862C6.00862 4.754 7.62862 3 9.96762 3ZM9.99862 5C8.75162 5 8.00362 5.846 8.00362 7.004H11.9936C11.9936 5.846 11.2136 5 9.99862 5Z" fill="#1A1C1F"/>
</g>
<defs>
<clipPath id="clip0_2202_1475">
<rect width="20" height="20" fill="white"/>
</clipPath>
</defs>
</svg>

<svg xmlns="http://www.w3.org/2000/svg" width="20" height="20" fill="none"><g clip-path="url(#a)"><path fill="#1A1C1F" fill-rule="evenodd" d="M9.968 3c2.37 0 4.02 1.723 4.02 3.978h2.994c.624 0 1.122.595.998 1.221l-1.56 7.987c-.093.47-.53.814-.997.814H4.575a1 1 0 0 1-.967-.814l-1.59-7.987a1.033 1.033 0 0 1 .999-1.221h2.992C6.009 4.754 7.629 3 9.968 3m.03 2c-1.246 0-1.994.846-1.994 2.004h3.99c0-1.158-.78-2.004-1.995-2.004" clip-rule="evenodd"/></g><defs><clipPath id="a"><path fill="#fff" d="M0 0h20v20H0z"/></clipPath></defs></svg>
